X:1
T:James Gibb editions
T:Psalm 83 (Becker) - Schütz
%%score [ ( 1 2 ) ( 3 4 ) ]
L:1/8
Q:1/4=100
M:2/2
K:C
V:1 treble nm="Soprano Alto"
V:2 treble 
V:3 bass nm="Tenor Bass"
V:4 bass 
V:1
"^Cornelius Becker\n(1561-1604)""^Psalm 83, SWV 180""^Heinrich Schütz\n(1585-1672)" E4 G4 | %1
w: ~Gott, schweig|
w: Wie lang|
 A2 c4 B2 | A2 A2 G4 | F2 E4 D2 | C4 E4 | F4 G2 A2- |[M:2/2] A2 A2 (G2 A2 | F8) | E8 :| A4 G4 | %10
w: du nicht so|ganz und gar|in un- ser|G'fahr, sitz|doch nicht im\-|||||
w: willt du denn|hal- ten inn,|uns ge- ben|hin in|un- ser Fein\-||||Sie wü-|
 c2 B4 e2 | d2 d2 c4 | A4 B2 c2 | d4 B4 | c2 d2 e4 | E4 F4 | G2 A4 F2 | (G2 A2 F4) | E8- | E8 |] %20
w: ||||||* * uns|zie\- * *|len.||
w: ten fast wid'r|dich mit Haß,|em- pö- ren|sich ge-|||||||
V:2
 B,4 E4 | E2 F4 D2 | D2 D2 D4 | A,2 C4 B,2 | C4 C4 | D4 E2 F2- |[M:2/2] F2 F2 (E4- | E2 DC D4) | %8
w: ||||||* mer stil\-||
w: ||||||* de Wil\-||
 ^C8 :| E4 E4 | E2 G4 G2 | A2 G2 E4 | F4 D2 G2 | ^F4 E4 | E2 D2 B,4 | C4 D4 | E2 F4 C2 | (E6 D2 | %18
w: le!||||||wal- tig- lich,|mit List|sie auf uns|zie\- *|
w: len?||||||||||
 C2 B,2 C4) | B,8 |] %20
w: |len.|
w: ||
V:3
 G,4 C4 | C2 A,4 G,2 | ^F,2 F,2 G,4 | D,2 G,4 G,2 | G,4 A,4 | A,4 C2 C2- |[M:2/2] C2 C2 (C3 B, | %7
 A,8) | A,8 :| C4 B,4 | A,2 D4 C2 | C2 B,2 C4 | C4 B,2 G,2 | A,4 ^G,4 | %14
"^2. Ihr Anschlag listig und geschwind\ngerichtet sind \nwider dein Volk und G'meine, \nzu würgen sie steht ihr Begehr \nsie schrein: Wohl her, \nlaßt sie ausrotten reine, \nsie solln nicht sein \nein Volk und G´mein, \nvon dieser Erd'n \nvertilgt muß werd'n \nihr Nam, wir sind alleine.\n" A,2 A,2 ^G,4 | %15
 A,4 A,4 | %16
"^6. Durch einen Wirbel sie zerstäub\nund schnell vertreib, \nwie Stoppeln von dem Winde, \ngleichwie Feu'r einen Wald verbrennt, \nwenn so behend \nein Flamm die Berg anzündet, \ndurchs Wetter schwer\nver folg sie sehr, \nschreck sie im Grimm \nmit Unges tüm \nvon wegen ihrer Sünden." C2 C4 A,2 | %17
 (C3 B,A,G, A,2- | A,2 E,2 A,4) | ^G,8 |] %20
V:4
 E,4 C,4 | A,,2 F,,4 G,,2 | D,2 D,2 G,,4 | D,2 C,4 G,,2 | C,4 A,,4 | D,4 C,2 F,2- | %6
[M:2/2] F,2 F,2 (C,2 A,,2 | D,8) | A,,8 :| A,4 E,4 | A,2 G,4 E,2 | F,2 G,2 C,4 | F,4 G,2 E,2 | %13
 D,4 E,4 | A,2 F,2 E,4 | A,,4 D,4 | C,2 F,4 F,2 | (C,2 A,,2 D,4 | A,,8) | E,8 |] %20

